X:262
T:Templehouse, The
R:reel
H:Also played with doubled parts
D:Matt Molloy
D:Noel Hill and Tony MacMahon: I gCnoc na Gra\'i
Z:id:hn-reel-262
M:C|
K:Em
EFGA BFAF | D2 (3FED ADFD | EFGA BE~E2 |1 B2Ad BEED :|2 B2Ad BE~E2 ||
g2ef gfeg | fdde fd~d2 | g2ef gfed | (3Bcd Ad BE~E2 |
g2ef gfeg | fdd^c dfaf | ~e3f gfed | (3Bcd Ad BEED ||
P:variations
|: EFGA BFAF | D2FD ADFD | EFGA BE~E2 |1 BdA=c BEED :|2 B2A=c BE~E2 ||
g2ef gfeg | fdde fddf | g2ef gfed | B2A=c BE~E2 |
g2ef gfeg | fdd^c dfaf | edef gfed | BdA=c BEED ||

